img/descuento/descuento-city-icon.svg

<svg width="17" height="19" viewBox="0 0 17 19" fill="none" xmlns="http://www.w3.org/2000/svg">
<path d="M12.2649 4.20239C11.0405 2.33661 9.0192 1.28711 6.74528 1.28711C4.49079 1.28711 2.46953 2.33661 1.20624 4.20239C-0.0570468 6.0293 -0.348575 8.36153 0.428833 10.4022C0.642621 10.9464 0.973019 11.51 1.40059 12.0153L6.3177 17.807C6.43431 17.9237 6.55093 18.0014 6.72584 18.0014C6.90076 18.0014 7.01737 17.9237 7.13398 17.807L12.0705 12.0153C12.4981 11.51 12.8479 10.9658 13.0423 10.4022C13.8197 8.36153 13.5282 6.0293 12.2649 4.20239ZM6.74528 11.0825C5.07385 11.0825 3.69395 9.70256 3.69395 8.03113C3.69395 6.3597 5.07385 4.9798 6.74528 4.9798C8.41671 4.9798 9.79661 6.3597 9.79661 8.03113C9.79661 9.70256 8.43614 11.0825 6.74528 11.0825Z" fill="white"/>
<circle cx="13.164" cy="3.21429" r="3.21429" fill="#86BFE5"/>
<circle cx="13.1642" cy="3.21568" r="1.92857" fill="#020303"/>
</svg>

<svg width="17" height="19" fill="none" xmlns="http://www.w3.org/2000/svg"><path d="M12.265 4.202c-1.225-1.865-3.246-2.915-5.52-2.915-2.254 0-4.275 1.05-5.539 2.915-1.263 1.827-1.555 4.16-.777 6.2a5.85 5.85 0 00.972 1.613l4.917 5.792c.116.117.233.194.408.194.175 0 .291-.077.408-.194l4.936-5.792c.428-.505.778-1.05.972-1.613.778-2.04.486-4.373-.777-6.2zm-5.52 6.88a3.07 3.07 0 01-3.051-3.05A3.07 3.07 0 016.745 4.98 3.07 3.07 0 019.797 8.03a3.057 3.057 0 01-3.052 3.051z" fill="#fff"/><circle cx="13.164" cy="3.214" r="3.214" fill="#86BFE5"/><circle cx="13.164" cy="3.216" r="1.929" fill="#020303"/></svg>
